X:1
T:Tony \& Barbara Gibbons
T:Tony \& Barbara Gibbons
T:Anselm Lingnau
C:Anselm Lingnau
L:1/8
M:4/4
K:C
V:1 treble 
V:1
 gazg' e dacge Daga ad ved Edbug (ce) .A>G |"D" ^F<A A>B d<A A>^f |"Em" g>^f e>d"A" ^c>e c<A | %3
"D" ^F<A A>B d<A A>F |"Em" G>A B<G"A" E2 ^FG |"D" ^F<A A>B"Bm" A>F (3DEF | %6
"Em" G>^F E>D"A" ^C<E E>A |"D" ^F<D A>G"Bm" F<d"Em" (3BAG |"A" ^F<A F>E"D" D2 || d>^c | %10
"G" B<d d>B"D" B<A A>^F |"Em" G<B B>G"A" E3 ^F/G/ |"D" ^F<A A>F"Bm" D2 (3DEF | %13
"Em" G>^F E>D"A" ^C<E E>A |"G" B<d d>b"D" a<d"A" e>^c |"D" d<D"Em" E>D"A" ^CE A>G | %16
"D" ^F<D A>G"Bm" F<d"Em" (3BAG |"A" ^F<A F>E"D" D2 |] %18

